resources/svg/face-id-o.svg

<svg xmlns="http://www.w3.org/2000/svg" viewBox="0 0 15 15" fill="none"><path d="M4 6H5V5H4V6ZM10 6H11V5H10V6ZM10.1 8.7C8.8 10.4333 6.2 10.4333 4.9 8.7L4.1 9.3C5.8 11.5667 9.2 11.5667 10.9 9.3L10.1 8.7ZM1 5V2.5H0V5H1ZM2.5 1H5V0H2.5V1ZM1 2.5C1 1.67157 1.67157 1 2.5 1V0C1.11929 0 0 1.11929 0 2.5H1ZM0 10V12.5H1V10H0ZM2.5 15H5V14H2.5V15ZM0 12.5C0 13.8807 1.11929 15 2.5 15V14C1.67157 14 1 13.3284 1 12.5H0ZM10 1H12.5V0H10V1ZM14 2.5V5H15V2.5H14ZM12.5 1C13.3284 1 14 1.67157 14 2.5H15C15 1.11929 13.8807 0 12.5 0V1ZM10 15H12.5V14H10V15ZM15 12.5V10H14V12.5H15ZM12.5 15C13.8807 15 15 13.8807 15 12.5H14C14 13.3284 13.3284 14 12.5 14V15Z" fill="black"/></svg>

<svg xmlns="http://www.w3.org/2000/svg" viewBox="0 0 15 15" fill="none"><path d="M4 6h1V5H4v1zm6 0h1V5h-1v1zm.1 2.7a3.25 3.25 0 01-5.2 0l-.8.6c1.7 2.267 5.1 2.267 6.8 0l-.8-.6zM1 5V2.5H0V5h1zm1.5-4H5V0H2.5v1zM1 2.5A1.5 1.5 0 012.5 1V0A2.5 2.5 0 000 2.5h1zM0 10v2.5h1V10H0zm2.5 5H5v-1H2.5v1zM0 12.5A2.5 2.5 0 002.5 15v-1A1.5 1.5 0 011 12.5H0zM10 1h2.5V0H10v1zm4 1.5V5h1V2.5h-1zM12.5 1A1.5 1.5 0 0114 2.5h1A2.5 2.5 0 0012.5 0v1zM10 15h2.5v-1H10v1zm5-2.5V10h-1v2.5h1zM12.5 15a2.5 2.5 0 002.5-2.5h-1a1.5 1.5 0 01-1.5 1.5v1z" fill="currentColor"/></svg>
